icons/contraceptive_diaphragm_fill.svg

<svg width="48" height="48" viewBox="0 0 48 48" fill="none" xmlns="http://www.w3.org/2000/svg">
<path fill-rule="evenodd" clip-rule="evenodd" d="M38 24.0426C38 24.4229 37.9849 24.7851 37.9553 25.13L37.9652 25.1321C37.9883 25.49 38 25.8515 38 26.2162C38 27.6249 37.824 28.7626 37.5175 29.6844C37.3432 30.2085 37.6268 30.7746 38.1508 30.9489C38.6749 31.1232 39.241 30.8396 39.4153 30.3156C39.8044 29.1454 40 27.7865 40 26.2162C40 26.0546 39.9979 25.8935 39.9938 25.7329C44.4057 28.1108 47.1758 37 24.271 37C1.42927 37 3.19911 27.6685 8.00679 25.7111C8.00227 25.8789 8 26.0473 8 26.2162C8 27.5251 8.13586 28.6863 8.40606 29.7138C8.54652 30.2479 9.09339 30.567 9.62751 30.4266C10.1616 30.2861 10.4808 29.7392 10.3403 29.2051C10.1221 28.3753 10 27.3895 10 26.2162C10 25.8741 10.0103 25.5348 10.0306 25.1986L10.0504 25.1947C10.017 24.8305 10 24.4468 10 24.0426C10 16.2871 16.268 10 24 10C31.732 10 38 16.2871 38 24.0426ZM20.6264 17.2759C21.1553 17.1167 21.4549 16.559 21.2957 16.0301C21.1366 15.5013 20.5788 15.2016 20.0499 15.3608C18.3127 15.8837 16.7883 16.9488 15.6998 18.4003C14.6113 19.8517 14.0157 21.6134 14.0003 23.4276C13.9956 23.9799 14.4395 24.4314 14.9917 24.4361C15.544 24.4408 15.9955 23.9969 16.0002 23.4447C16.012 22.0573 16.4674 20.7102 17.2998 19.6002C18.1322 18.4903 19.2979 17.6758 20.6264 17.2759Z" fill="black"/>
</svg>

<svg
  xmlns="http://www.w3.org/2000/svg"
  width="24"
  height="24"
  viewBox="0 0 24 24"
  fill="none"
  stroke="currentColor"
  stroke-width="2"
  stroke-linecap="round"
  stroke-linejoin="round"
>
  <path
    fill-rule="evenodd"
    d="M38 24.043q0 .57-.045 1.087l.01.002q.035.538.035 1.084c0 1.409-.176 2.547-.483 3.468a1 1 0 0 0 1.898.632c.39-1.17.585-2.53.585-4.1q0-.242-.006-.483C44.406 28.11 47.176 37 24.27 37 1.429 37 3.199 27.669 8.007 25.711a19 19 0 0 0-.007.505c0 1.31.136 2.47.406 3.498a1 1 0 0 0 1.934-.509c-.218-.83-.34-1.815-.34-2.989q0-.513.03-1.017l.02-.004q-.05-.546-.05-1.152C10 16.287 16.268 10 24 10s14 6.287 14 14.043m-17.374-6.767a1 1 0 1 0-.576-1.915A8.5 8.5 0 0 0 14 23.428a1 1 0 0 0 2 .017 6.5 6.5 0 0 1 4.626-6.17"
    clip-rule="evenodd"
  />
</svg>
